X:1
T:Tik sārti brūces kvēlo
T:M. Celminskis
T:Tik sārti brūces kvēlo
T:Copyright © 
C:M. Celminskis
Z:Copyright ©
%%score { ( 1 2 ) | ( 3 4 ) }
L:1/8
Q:1/4=80
M:4/4
K:G
V:1 treble nm="P1"
V:2 treble 
V:3 bass 
V:4 bass 
V:1
!p!"^Andante" E2 | G2 G2 F2 G2 | E4 E2!<(! G2 | B2 B2!<)! (AG) A2 | B6 |:!mf! B2 | B2 c2 A2 B2 | %7
w: 6.|at- skan ka- pu|zva- ni, kad|dzī- vē * sa- lūz-|tu,|6.|pie- ņem, iz- glāb|
w: 1.|sār- ti brū- ces|kvē- lo un|a- sins strau- * mes|irdz!|1.|vel- dzi- ni un|
w: 2.|sā- pēs * ma-|glā- bā, dod|mie- ru, Die- * va|Dēls!|2.|a- cīm krus- ta|
w: 3.|jau- nu prie- ku|jū- tu un|svē- tu spir- * gtu-|mu,|3.|Ta- vu nā- vi|
w: 4.|jā- brien sāp- ju|jū- ra, tad|sa- vu * ro- ku|sniedz.|4.|jā- cieš nā- ve|
w: 5.|dzī- vais Kungs, lai|va- ru pie|Ta- va krus- * ta|še'|5.|at- dot sa- vu|
!>(! A4 G2!>)! G2 |!mp! F2 (GA)!>(! G2 F2!>)! |!p! E6 :| %10
w: ma- ni ar|sa- vām * cie- ša-|nām.|
w: žē- lo, un|slēdz * pie sa- vas|sirds.|
w: sta- bā lai|stāv Tavs * svē- tais|tēls.|
w: grū- to, Kungs|Jē- * zu, pie- mi-|nu.|
w: sū- ra, tad|ma- * ni ne- aiz-|liedz.|
w: ga- ru tad|miers nāks _ dvē- se-|lē.|
V:2
 B,2 | E2 E2 E2 ^D2 | E4 B,2 E2 | ^D2 E2 (FE) F2 | G6 |: A2 | G2 G2 F2 F2 | F4 E2 E2 | %8
 E2 E2 E2 ^D2 | E6 :| %10
V:3
 G,2 | B,2 B,2 A,2 B,2 | B,2 A,2 G,2 B,2 | A,2 B,2 D2 C2 | [B,D]6 |: ^D2 | E2 E2 D2 D2 | %7
 C2 B,2 B,2 B,2 | A,2 C2 B,2 A,2 | G,6 :| %10
V:4
 E,2 | E,2 D,2 C,2 B,,2 | G,2 F,2 E,2 E,2 | F,2 G,2 D,2 D,2 | G,6 |: F,2 | E,2 A,2 D,2 D,2 | %7
 ^D,4 E,2 =D,2 | C,2 A,,2 B,,2 B,,2 | E,6 :| %10

